X: 124
T: Dedo Mili Dedo
O: Macedonia
F: http://www.youtube.com/watch?v=L15slUBUn64
F: http://www.youtube.com/watch?v=4Bs9sLl5DO4
F: http://www.youtube.com/watch?v=G1j7UIDeKQc
F: http://www.youtube.com/watch?v=1oUjQtMTIcs
M: 2/4
L: 1/8
Q: 1/4=100
K: Am
%%MIDI gchord ff
%%MIDI program 25
%%MIDI bassprog 45
  "d" D D/E/ "a"F/D/E/C/|"d"D D/C/ "a"B,/C/D |\
  D D/E/ F/D/E/C/       |"d"Dz "a"G/F/E/D/   |
  "d" D D/E/ "a"F/D/E/C/|"d"D D/C/ "d" B,/C/D|\
  "d"D D/E/ "a"F/D/E/C/ |"d"D2  z2           |
%%MIDI program 110
|:"f"AA "c"AA           |"f"AG "g"GF         |\
  "d"AG "d"GF           |"d"FE "c"DC         |
  "d" DE "c"FE          |"g"Gz "d"Dz         |\
  "d"DC "c"B,C          |"d"D2 z2            |
  "d" DE "c"FE          |"g"Gz "d"Dz         |\
  "d"DC "c"B,C          |"d"D2 z2            :|



